src/assets/icons/workflow.svg

<svg fill="none" viewBox="0 0 24 24"><path stroke="currentColor" stroke-linecap="round" stroke-linejoin="round" stroke-width="1.5" d="M7.5 6.75h3m5.654 0c-1.42.002-2.177.027-2.766.327a3 3 0 0 0-1.311 1.311c-.327.642-.327 1.482-.327 3.162v2.4c0 1.68 0 2.52.327 3.162a3 3 0 0 0 1.311 1.311c.589.3 1.346.325 2.766.327m0-12q.198 0 0 0"/><rect width="5" height="4.5" x="4" y="4" stroke="currentColor" stroke-linecap="round" stroke-linejoin="round" stroke-width="1.5" rx="1.5"/><rect width="5" height="4.5" x="4" y="16" stroke="currentColor" stroke-linecap="round" stroke-linejoin="round" stroke-width="1.5" rx="1.5"/><circle cx="17.25" cy="12.75" r="2" stroke="currentColor" stroke-linecap="round" stroke-linejoin="round" stroke-width="1.5"/></svg>

<svg width="24" height="24" viewBox="0 0 24 24" fill="none" xmlns="http://www.w3.org/2000/svg">
  <path d="M7.5 6.75L10.5 6.75M16.154 6.75C14.734 6.752 13.977 6.777 13.388 7.077C12.824 7.365 12.365 7.823 12.077 8.388C11.75 9.03 11.75 9.87 11.75 11.55V13.95C11.75 15.63 11.75 16.47 12.077 17.112C12.365 17.676 12.824 18.135 13.388 18.423C13.977 18.723 14.734 18.748 16.154 18.75M16.154 6.75C16.286 6.75 16.286 6.75 16.154 6.75Z" stroke="#314158" stroke-width="1.5" stroke-linecap="round" stroke-linejoin="round"/>
  <rect x="4" y="4" width="5" height="4.5" rx="1.5" stroke="#314158" stroke-width="1.5" stroke-linecap="round" stroke-linejoin="round"/>
  <rect x="4" y="16" width="5" height="4.5" rx="1.5" stroke="#314158" stroke-width="1.5" stroke-linecap="round" stroke-linejoin="round"/>
  <circle cx="17.25" cy="12.75" r="2" stroke="#314158" stroke-width="1.5" stroke-linecap="round" stroke-linejoin="round"/>
</svg>
